static/img/eye.svg

<svg fill="none" height="16" viewBox="0 0 22 16" width="22" xmlns="http://www.w3.org/2000/svg"><path d="m11 12.0581c1.25 0 2.3125-.4375 3.1875-1.3125.875-.87499 1.3125-1.93749 1.3125-3.18749s-.4375-2.3125-1.3125-3.1875-1.9375-1.3125-3.1875-1.3125-2.3125.4375-3.1875 1.3125-1.3125 1.9375-1.3125 3.1875.4375 2.3125 1.3125 3.18749c.875.875 1.9375 1.3125 3.1875 1.3125zm0-1.8c-.75 0-1.3875-.26249-1.9125-.78749s-.7875-1.1625-.7875-1.9125.2625-1.3875.7875-1.9125 1.1625-.7875 1.9125-.7875 1.3875.2625 1.9125.7875.7875 1.1625.7875 1.9125-.2625 1.3875-.7875 1.9125-1.1625.78749-1.9125.78749zm0 4.8c-2.43333 0-4.65-.6792-6.65-2.0375s-3.45-3.17916-4.35-5.46249c.9-2.28334 2.35-4.10417 4.35-5.4625 2-1.358338 4.21667-2.0375045 6.65-2.0375045 2.4333 0 4.65.6791665 6.65 2.0375045 2 1.35833 3.45 3.17916 4.35 5.4625-.9 2.28333-2.35 4.10419-4.35 5.46249s-4.2167 2.0375-6.65 2.0375zm0-2c1.8833 0 3.6125-.4958 5.1875-1.4875s2.7792-2.32916 3.6125-4.01249c-.8333-1.68334-2.0375-3.02084-3.6125-4.0125-1.575-.99167-3.3042-1.4875-5.1875-1.4875-1.88333 0-3.6125.49583-5.1875 1.4875-1.575.99166-2.77917 2.32916-3.6125 4.0125.83333 1.68333 2.0375 3.02079 3.6125 4.01249s3.30417 1.4875 5.1875 1.4875z" fill="#1c1b1f"/></svg>

<svg width="22" height="16" viewBox="0 0 22 16" fill="none" xmlns="http://www.w3.org/2000/svg">
<path d="M11 12.0581C12.25 12.0581 13.3125 11.6206 14.1875 10.7456C15.0625 9.87061 15.5 8.80811 15.5 7.55811C15.5 6.30811 15.0625 5.24561 14.1875 4.37061C13.3125 3.49561 12.25 3.05811 11 3.05811C9.75 3.05811 8.6875 3.49561 7.8125 4.37061C6.9375 5.24561 6.5 6.30811 6.5 7.55811C6.5 8.80811 6.9375 9.87061 7.8125 10.7456C8.6875 11.6206 9.75 12.0581 11 12.0581ZM11 10.2581C10.25 10.2581 9.6125 9.99561 9.0875 9.47061C8.5625 8.94561 8.3 8.30811 8.3 7.55811C8.3 6.80811 8.5625 6.17061 9.0875 5.64561C9.6125 5.12061 10.25 4.85811 11 4.85811C11.75 4.85811 12.3875 5.12061 12.9125 5.64561C13.4375 6.17061 13.7 6.80811 13.7 7.55811C13.7 8.30811 13.4375 8.94561 12.9125 9.47061C12.3875 9.99561 11.75 10.2581 11 10.2581ZM11 15.0581C8.56667 15.0581 6.35 14.3789 4.35 13.0206C2.35 11.6623 0.9 9.84144 0 7.55811C0.9 5.27477 2.35 3.45394 4.35 2.09561C6.35 0.737272 8.56667 0.0581055 11 0.0581055C13.4333 0.0581055 15.65 0.737272 17.65 2.09561C19.65 3.45394 21.1 5.27477 22 7.55811C21.1 9.84144 19.65 11.6623 17.65 13.0206C15.65 14.3789 13.4333 15.0581 11 15.0581ZM11 13.0581C12.8833 13.0581 14.6125 12.5623 16.1875 11.5706C17.7625 10.5789 18.9667 9.24144 19.8 7.55811C18.9667 5.87477 17.7625 4.53727 16.1875 3.54561C14.6125 2.55394 12.8833 2.05811 11 2.05811C9.11667 2.05811 7.3875 2.55394 5.8125 3.54561C4.2375 4.53727 3.03333 5.87477 2.2 7.55811C3.03333 9.24144 4.2375 10.5789 5.8125 11.5706C7.3875 12.5623 9.11667 13.0581 11 13.0581Z" fill="#1C1B1F"/>
</svg>
